; generated by Slic3r 1.3.0 on 2022-02-07 at 21:07:28

; external perimeters extrusion width = 0.55mm (4.37mm^3/s)
; perimeters extrusion width = 0.70mm (11.44mm^3/s)
; infill extrusion width = 0.62mm (13.45mm^3/s)
; solid infill extrusion width = 0.70mm (3.81mm^3/s)
; top infill extrusion width = 0.70mm (2.86mm^3/s)
; support material extrusion width = 0.55mm (8.74mm^3/s)

M190 S80 ; set bed temperature and wait for it to be reached
M104 S250 ; set temperature
G28 ; home all axes
G1 Z5 F5000 ; lift nozzle

; Filament gcode

M109 S250 ; set temperature and wait for it to be reached
G21 ; set units to millimeters
G90 ; use absolute coordinates
M82 ; use absolute distances for extrusion
G92 E0
G1 Z0.350 F7800.000
G1 E-2.00000 F2400.00000
G92 E0
G1 X63.853 Y33.085 F7800.000
G1 E2.00000 F2400.00000
G1 F1800
G1 X64.166 Y32.507 E2.05978
G1 X66.227 Y29.115 E2.42068
G1 X66.596 Y28.571 E2.48046
G1 X68.983 Y25.400 E2.84136
G1 X69.404 Y24.895 E2.90114
G1 X72.094 Y21.976 E3.26204
G1 X72.562 Y21.516 E3.32182
G1 X75.476 Y18.924 E3.67641
G1 X76.040 Y18.466 E3.74249
G1 X79.253 Y16.135 E4.10340
G1 X79.803 Y15.776 E4.16317
G1 X83.231 Y13.775 E4.52407
G1 X83.815 Y13.472 E4.58385
G1 X87.424 Y11.820 E4.94477
G1 X88.034 Y11.577 E5.00453
G1 X91.790 Y10.291 E5.36544
G1 X92.421 Y10.109 E5.42521
G1 X96.285 Y9.202 E5.78613
G1 X96.932 Y9.084 E5.84589
G1 X100.867 Y8.564 E6.20680
G1 X101.522 Y8.510 E6.26657
G1 X105.489 Y8.383 E6.62748
G1 X106.146 Y8.395 E6.68725
G1 X110.106 Y8.661 E7.04816
G1 X110.759 Y8.738 E7.10793
G1 X114.673 Y9.395 E7.46884
G1 X115.315 Y9.536 E7.52861
G1 X119.145 Y10.579 E7.88952
G1 X119.770 Y10.783 E7.94929
G1 X123.478 Y12.199 E8.31020
G1 X124.079 Y12.464 E8.36997
G1 X127.566 Y14.210 E8.72457
G1 X128.201 Y14.565 E8.79065
G1 X131.556 Y16.685 E9.15156
G1 X132.094 Y17.063 E9.21133
G1 X135.222 Y19.505 E9.57223
G1 X135.720 Y19.935 E9.63201
G1 X138.591 Y22.676 E9.99291
G1 X139.043 Y23.152 E10.05269
G1 X141.629 Y26.164 E10.41359
G1 X142.032 Y26.683 E10.47337
G1 X144.306 Y29.936 E10.83427
G1 X144.656 Y30.493 E10.89405
G1 X146.562 Y33.895 E11.24864
G1 X146.889 Y34.544 E11.31472
G1 X148.477 Y38.181 E11.67563
G1 X148.710 Y38.796 E11.73540
G1 X149.930 Y42.573 E12.09631
G1 X150.100 Y43.208 E12.15608
G1 X150.940 Y47.087 E12.51699
G1 X151.047 Y47.736 E12.57676
G1 X151.497 Y51.679 E12.93767
G1 X151.539 Y52.335 E12.99744
G1 X151.597 Y56.304 E13.35837
G1 X151.574 Y56.961 E13.41812
G1 X151.238 Y60.916 E13.77906
G1 X151.150 Y61.567 E13.83880
G1 X150.424 Y65.469 E14.19971
G1 X150.324 Y65.921 E14.24174
G1 X116.413 Y196.659 E26.52312
G1 X115.461 Y198.746 E26.73166
G1 X113.855 Y200.383 E26.94020
G1 X111.787 Y201.375 E27.14874
G1 X110.000 Y201.620 E27.31280
G1 X100.000 Y201.620 E28.22210
G1 X97.741 Y201.223 E28.43064
G1 X95.753 Y200.080 E28.63918
G1 X94.274 Y198.327 E28.84773
G1 X93.575 Y196.609 E29.01642
G1 X58.745 Y57.903 E42.02044
G1 X58.602 Y57.154 E42.08975
G1 X58.432 Y55.860 E42.20845
G1 X58.383 Y54.667 E42.31706
G1 X58.580 Y50.702 E42.67797
G1 X58.646 Y50.048 E42.73775
G1 X59.235 Y46.123 E43.09865
G1 X59.364 Y45.479 E43.15843
G1 X60.339 Y41.631 E43.51933
G1 X60.532 Y41.003 E43.57911
G1 X61.884 Y37.271 E43.94001
G1 X62.138 Y36.665 E43.99979
G1 X63.820 Y33.153 E44.35387
G1 E42.35387 F2400.00000
G92 E0
G1 X66.110 Y34.167 F7800.000
G1 E2.00000 F2400.00000
G1 F1800
G1 X66.252 Y33.894 E2.02791
G1 X68.534 Y30.158 E2.42608
G1 X71.044 Y26.824 E2.80566
G1 X74.003 Y23.597 E3.20382
G1 X77.428 Y20.552 E3.62058
G1 X80.806 Y18.101 E4.00016
G1 X84.581 Y15.885 E4.39833
G1 X88.748 Y13.978 E4.81508
G1 X92.697 Y12.626 E5.19467
G1 X96.957 Y11.615 E5.59284
G1 X101.500 Y11.015 E6.00959
G1 X105.671 Y10.881 E6.38917
G1 X110.040 Y11.165 E6.78734
G1 X114.559 Y11.924 E7.20409
G1 X118.781 Y13.084 E7.60226
G1 X122.680 Y14.574 E7.98183
G1 X126.777 Y16.626 E8.39859
G1 X130.306 Y18.855 E8.77818
G1 X133.763 Y21.541 E9.17634
G1 X137.078 Y24.705 E9.59310
G1 X139.922 Y28.034 E9.99126
G1 X142.314 Y31.454 E10.37084
G1 X144.554 Y35.452 E10.78760
G1 X146.297 Y39.468 E11.18577
G1 X147.579 Y43.440 E11.56535
G1 X148.515 Y47.717 E11.96352
G1 X149.022 Y52.065 E12.36169
G1 X149.096 Y56.443 E12.75986
G1 X148.736 Y60.806 E13.15804
G1 X147.945 Y65.112 E13.55617
G1 X146.731 Y69.318 E13.95437
G1 X145.106 Y73.384 E14.35253
G1 X143.086 Y77.268 E14.75069
G1 X140.571 Y81.099 E15.16745
G1 X137.809 Y84.496 E15.56562
G1 X134.724 Y87.602 E15.96378
G1 X131.346 Y90.387 E16.36196
G1 X127.709 Y92.824 E16.76012
G1 X123.848 Y94.889 E17.15829
G1 X119.994 Y96.492 E17.53787
G1 X116.890 Y97.445 E17.83322
G1 X116.823 Y97.484 E17.84028
G1 X116.634 Y97.671 E17.86441
G1 X116.056 Y98.525 E17.95826
G1 X115.399 Y100.001 E18.10513
G1 X114.799 Y102.172 E18.31002
G1 X114.338 Y105.229 E18.59115
G1 X114.178 Y107.463 E18.79489
G1 X114.122 Y110.042 E19.02952
G1 X114.122 Y196.703 E26.91092
G1 X111.707 Y199.118 E27.22148
G1 X98.293 Y199.118 E28.44149
G1 X95.878 Y196.703 E28.75205
G1 X95.878 Y110.257 E36.61393
G1 X95.392 Y106.242 E36.98172
G1 X95.177 Y102.296 E37.34114
G1 X95.314 Y98.500 E37.68663
G1 X95.337 Y98.260 E37.70850
G1 X95.828 Y95.120 E37.99760
G1 X95.890 Y94.846 E38.02309
G1 X96.725 Y92.061 E38.28754
G1 X96.837 Y91.769 E38.31601
G1 X98.022 Y89.270 E38.56752
G1 X98.189 Y88.981 E38.59786
G1 X99.739 Y86.738 E38.84586
G1 X99.941 Y86.489 E38.87500
G1 X101.686 Y84.653 E39.10533
G1 X101.903 Y84.456 E39.13204
G1 X103.995 Y82.804 E39.37448
G1 X104.220 Y82.649 E39.39930
G1 X106.710 Y81.170 E39.66267
G1 X106.929 Y81.058 E39.68501
G1 X110.088 Y79.672 E39.99873
G1 X113.756 Y78.497 E40.34906
G1 X117.415 Y77.668 E40.69028
G1 X119.562 Y76.378 E40.91803
G1 X121.905 Y74.578 E41.18680
G1 X124.028 Y72.522 E41.45557
G1 X125.903 Y70.237 E41.72434
G1 X127.505 Y67.754 E41.99310
G1 X128.813 Y65.104 E42.26187
G1 X129.810 Y62.322 E42.53064
G1 X130.483 Y59.444 E42.79940
G1 X130.824 Y56.509 E43.06817
G1 X130.829 Y53.572 E43.33523
G1 X130.498 Y50.635 E43.60400
G1 X129.834 Y47.756 E43.87277
G1 X128.839 Y44.953 E44.14324
G1 X127.538 Y42.300 E44.41201
G1 X125.943 Y39.812 E44.68078
G1 X124.087 Y37.536 E44.94784
G1 X121.971 Y35.473 E45.21661
G1 X119.618 Y33.654 E45.48708
G1 X117.088 Y32.126 E45.75584
G1 X114.401 Y30.897 E46.02461
G1 X111.609 Y29.986 E46.29168
G1 X108.714 Y29.396 E46.56044
G1 X105.770 Y29.139 E46.82921
G1 X102.815 Y29.220 E47.09798
G1 X99.871 Y29.641 E47.36845
G1 X97.013 Y30.391 E47.63721
G1 X94.276 Y31.455 E47.90428
G1 X91.661 Y32.831 E48.17305
G1 X89.220 Y34.497 E48.44181
G1 X86.971 Y36.443 E48.71228
G1 X84.985 Y38.606 E48.97935
G1 X83.246 Y40.996 E49.24812
G1 X81.791 Y43.568 E49.51688
G1 X80.639 Y46.289 E49.78565
G1 X79.805 Y49.124 E50.05442
G1 X79.299 Y52.036 E50.32319
G1 X79.111 Y55.307 E50.62116
G1 X78.881 Y57.095 E50.78515
G1 X78.741 Y57.617 E50.83429
G1 X78.035 Y59.323 E51.00214
G1 X77.765 Y59.791 E51.05128
G1 X76.641 Y61.255 E51.21915
G1 X76.259 Y61.637 E51.26828
G1 X74.795 Y62.760 E51.43614
G1 X74.327 Y63.031 E51.48527
G1 X72.622 Y63.737 E51.65312
G1 X72.100 Y63.877 E51.70226
G1 X70.270 Y64.118 E51.87011
G1 X69.730 Y64.118 E51.91925
G1 X67.900 Y63.877 E52.08708
G1 X67.378 Y63.737 E52.13623
G1 X65.673 Y63.031 E52.30408
G1 X65.205 Y62.760 E52.35323
G1 X63.741 Y61.637 E52.52107
G1 X63.359 Y61.255 E52.57022
G1 X62.235 Y59.791 E52.73806
G1 X61.965 Y59.323 E52.78721
G1 X61.259 Y57.617 E52.95508
G1 X61.119 Y57.095 E53.00421
G1 X60.889 Y55.349 E53.16443
G1 X60.874 Y54.977 E53.19829
G1 X61.085 Y50.725 E53.58549
G1 X61.765 Y46.193 E54.00225
G1 X62.851 Y41.951 E54.40042
G1 X64.272 Y38.027 E54.78000
G1 X66.078 Y34.234 E55.16204
G1 X66.674 Y34.437 F7800.000
G1 F1800
G1 X66.794 Y34.206 E55.18572
G1 X69.043 Y30.522 E55.57825
G1 X71.534 Y27.212 E55.95500
G1 X74.453 Y24.032 E56.34753
G1 X77.807 Y21.049 E56.75583
G1 X81.306 Y18.521 E57.14836
G1 X84.883 Y16.432 E57.52511
G1 X88.966 Y14.564 E57.93341
G1 X92.885 Y13.222 E58.31017
G1 X97.085 Y12.227 E58.70270
G1 X101.535 Y11.639 E59.11099
G1 X105.676 Y11.506 E59.48775
G1 X109.983 Y11.788 E59.88028
G1 X114.410 Y12.532 E60.28857
G1 X118.573 Y13.673 E60.68110
G1 X122.442 Y15.152 E61.05786
G1 X126.457 Y17.162 E61.46616
G1 X129.959 Y19.375 E61.84292
G1 X133.366 Y22.024 E62.23544
G1 X136.614 Y25.124 E62.64374
G1 X139.419 Y28.404 E63.03627
G1 X141.792 Y31.800 E63.41302
G1 X143.988 Y35.716 E63.82132
G1 X145.707 Y39.675 E64.21385
G1 X146.980 Y43.617 E64.59061
G1 X147.901 Y47.834 E64.98313
G1 X148.399 Y52.121 E65.37566
G1 X148.471 Y56.436 E65.76820
G1 X148.114 Y60.738 E66.16073
G1 X147.333 Y64.982 E66.55323
G1 X146.135 Y69.129 E66.94578
G1 X144.532 Y73.136 E67.33830
G1 X142.540 Y76.965 E67.73082
G1 X140.178 Y80.577 E68.12336
G1 X137.469 Y83.938 E68.51589
G1 X134.441 Y87.013 E68.90840
G1 X131.123 Y89.774 E69.30095
G1 X127.548 Y92.192 E69.69346
G1 X123.751 Y94.243 E70.08600
G1 X119.769 Y95.908 E70.47852
G1 X116.565 Y96.890 E70.78327
G1 X116.498 Y96.930 E70.79033
G1 X116.154 Y97.266 E70.83408
G1 X115.493 Y98.246 E70.94165
G1 X114.801 Y99.813 E71.09738
G1 X114.187 Y102.042 E71.30767
G1 X113.717 Y105.160 E71.59442
G1 X113.554 Y107.434 E71.80179
G1 X113.497 Y110.036 E72.03845
G1 X113.497 Y196.444 E79.89692
G1 X111.448 Y198.493 E80.16039
G1 X98.552 Y198.493 E81.33332
G1 X96.503 Y196.444 E81.59679
G1 X96.503 Y110.219 E89.43860
G1 X96.016 Y106.198 E89.80698
G1 X95.802 Y102.277 E90.16412
G1 X95.958 Y98.339 E90.52251
G1 X96.442 Y95.237 E90.80802
G1 X96.495 Y95.005 E90.82965
G1 X97.316 Y92.263 E91.09000
G1 X97.412 Y92.015 E91.11416
G1 X98.576 Y89.561 E91.36122
G1 X98.717 Y89.316 E91.38695
G1 X100.239 Y87.113 E91.63044
G1 X100.411 Y86.902 E91.65516
G1 X102.124 Y85.100 E91.88126
G1 X102.308 Y84.932 E91.90392
G1 X104.366 Y83.307 E92.14245
G1 X104.557 Y83.176 E92.16351
G1 X107.013 Y81.717 E92.42330
G1 X110.119 Y80.329 E92.73273
G1 X113.933 Y79.097 E93.09721
G1 X117.650 Y78.256 E93.44376
G1 X119.914 Y76.896 E93.68400
G1 X122.314 Y75.052 E93.95927
G1 X124.489 Y72.946 E94.23454
G1 X126.409 Y70.606 E94.50981
G1 X128.049 Y68.062 E94.78508
G1 X129.389 Y65.348 E95.06035
G1 X130.405 Y62.517 E95.33392
G1 X131.097 Y59.571 E95.60919
G1 X131.448 Y56.564 E95.88447
G1 X131.454 Y53.537 E96.15973
G1 X131.115 Y50.530 E96.43500
G1 X130.435 Y47.580 E96.71028
G1 X129.416 Y44.710 E96.98725
G1 X128.083 Y41.993 E97.26252
G1 X126.450 Y39.445 E97.53780
G1 X124.549 Y37.114 E97.81136
G1 X122.381 Y35.001 E98.08663
G1 X119.972 Y33.138 E98.36361
G1 X117.381 Y31.573 E98.63888
G1 X114.646 Y30.320 E98.91245
G1 X111.769 Y29.381 E99.18772
G1 X108.803 Y28.776 E99.46299
G1 X105.788 Y28.513 E99.73826
G1 X102.762 Y28.596 E100.01353
G1 X99.748 Y29.027 E100.29051
G1 X96.820 Y29.795 E100.56578
G1 X94.016 Y30.885 E100.83935
G1 X91.338 Y32.295 E101.11462
G1 X88.838 Y34.001 E101.38989
G1 X86.535 Y35.994 E101.66686
G1 X84.500 Y38.209 E101.94043
G1 X82.719 Y40.657 E102.21570
G1 X81.229 Y43.291 E102.49097
G1 X80.049 Y46.079 E102.76624
G1 X79.195 Y48.982 E103.04152
G1 X78.677 Y51.965 E103.31679
G1 X78.488 Y55.260 E103.61697
G1 X78.267 Y56.973 E103.77409
G1 X78.148 Y57.416 E103.81578
G1 X77.473 Y59.046 E103.97618
G1 X77.244 Y59.443 E104.01787
G1 X76.170 Y60.842 E104.17828
G1 X75.846 Y61.166 E104.21996
G1 X74.447 Y62.240 E104.38037
G1 X74.050 Y62.469 E104.42206
G1 X72.421 Y63.144 E104.58245
G1 X71.978 Y63.262 E104.62414
G1 X70.229 Y63.493 E104.78454
G1 X69.771 Y63.493 E104.82623
G1 X68.022 Y63.262 E104.98661
G1 X67.579 Y63.144 E105.02831
G1 X65.950 Y62.469 E105.18870
G1 X65.553 Y62.240 E105.23040
G1 X64.154 Y61.166 E105.39079
G1 X63.830 Y60.842 E105.43249
G1 X62.756 Y59.443 E105.59289
G1 X62.527 Y59.046 E105.63458
G1 X61.852 Y57.416 E105.79499
G1 X61.733 Y56.973 E105.83668
G1 X61.512 Y55.295 E105.99060
G1 X61.499 Y54.980 E106.01933
G1 X61.709 Y50.771 E106.40255
G1 X62.375 Y46.331 E106.81085
G1 X63.444 Y42.150 E107.20338
G1 X64.854 Y38.255 E107.58013
G1 X66.641 Y34.504 E107.95795
G1 X67.237 Y34.707 F7800.000
G1 F1800
G1 X67.336 Y34.517 E107.97739
G1 X69.551 Y30.885 E108.36428
G1 X72.024 Y27.600 E108.73822
G1 X74.902 Y24.467 E109.12510
G1 X78.187 Y21.545 E109.52494
G1 X81.634 Y19.053 E109.91183
G1 X85.185 Y16.980 E110.28576
G1 X89.183 Y15.150 E110.68561
G1 X93.073 Y13.819 E111.05954
G1 X97.212 Y12.839 E111.44643
G1 X101.571 Y12.263 E111.84626
G1 X105.680 Y12.132 E112.22020
G1 X109.925 Y12.410 E112.60709
G1 X114.261 Y13.139 E113.00693
G1 X118.364 Y14.263 E113.39381
G1 X122.205 Y15.730 E113.76775
G1 X126.136 Y17.699 E114.16759
G1 X129.612 Y19.896 E114.54153
G1 X132.969 Y22.508 E114.92841
G1 X136.150 Y25.543 E115.32825
G1 X138.915 Y28.775 E115.71513
G1 X141.271 Y32.145 E116.08907
G1 X143.421 Y35.980 E116.48891
G1 X145.117 Y39.882 E116.87580
G1 X146.380 Y43.794 E117.24973
G1 X147.287 Y47.951 E117.63662
G1 X147.777 Y52.176 E118.02351
G1 X147.846 Y56.430 E118.41040
G1 X147.493 Y60.669 E118.79729
G1 X146.721 Y64.853 E119.18416
G1 X145.539 Y68.939 E119.57106
G1 X143.958 Y72.888 E119.95794
G1 X141.993 Y76.661 E120.34482
G1 X139.664 Y80.221 E120.73172
G1 X136.993 Y83.533 E121.11861
G1 X134.008 Y86.563 E121.50548
G1 X130.736 Y89.283 E121.89238
G1 X127.212 Y91.664 E122.27926
G1 X123.468 Y93.685 E122.66615
G1 X119.543 Y95.325 E123.05304
G1 X116.240 Y96.336 E123.36719
G1 X116.173 Y96.375 E123.37424
G1 X115.673 Y96.861 E123.43762
G1 X114.944 Y97.942 E123.55626
G1 X114.211 Y99.602 E123.72129
G1 X113.574 Y101.912 E123.93920
G1 X113.095 Y105.091 E124.23155
G1 X112.929 Y107.405 E124.44255
G1 X112.872 Y110.029 E124.68124
G1 X112.872 Y196.185 E132.51680
G1 X111.190 Y197.868 E132.73318
G1 X98.810 Y197.868 E133.85902
G1 X97.128 Y196.185 E134.07540
G1 X97.128 Y110.181 E141.89713
G1 X96.648 Y106.249 E142.25733
G1 X96.427 Y102.257 E142.62097
G1 X96.578 Y98.417 E142.97043
G1 X97.100 Y95.164 E143.27007
G1 X97.908 Y92.465 E143.52634
G1 X97.987 Y92.261 E143.54618
G1 X99.130 Y89.851 E143.78877
G1 X99.246 Y89.650 E143.80991
G1 X100.740 Y87.488 E144.04888
G1 X100.881 Y87.315 E144.06919
G1 X102.561 Y85.547 E144.29105
G1 X102.713 Y85.409 E144.30966
G1 X104.894 Y83.703 E144.56154
G1 X107.316 Y82.264 E144.81776
G1 X110.357 Y80.907 E145.12060
G1 X114.110 Y79.696 E145.47923
G1 X117.884 Y78.844 E145.83111
G1 X120.266 Y77.413 E146.08383
G1 X122.723 Y75.526 E146.36561
G1 X124.949 Y73.370 E146.64738
G1 X126.914 Y70.975 E146.92916
G1 X128.584 Y68.388 E147.20923
G1 X129.958 Y65.610 E147.49100
G1 X131.005 Y62.695 E147.77278
G1 X131.713 Y59.678 E148.05455
G1 X132.073 Y56.601 E148.33633
G1 X132.079 Y53.503 E148.61810
G1 X131.732 Y50.424 E148.89988
G1 X131.036 Y47.405 E149.18165
G1 X129.993 Y44.468 E149.46513
G1 X128.638 Y41.702 E149.74520
G1 X126.968 Y39.093 E150.02698
G1 X125.010 Y36.691 E150.30875
G1 X122.792 Y34.528 E150.59053
G1 X120.326 Y32.622 E150.87401
G1 X117.691 Y31.028 E151.15408
G1 X114.874 Y29.737 E151.43586
G1 X111.929 Y28.776 E151.71763
G1 X108.893 Y28.157 E151.99941
G1 X105.806 Y27.888 E152.28118
G1 X102.709 Y27.972 E152.56296
G1 X99.624 Y28.413 E152.84643
G1 X96.627 Y29.200 E153.12821
G1 X93.756 Y30.315 E153.40828
G1 X91.015 Y31.759 E153.69006
G1 X88.441 Y33.516 E153.97353
G1 X86.099 Y35.545 E154.25531
G1 X84.004 Y37.828 E154.53709
G1 X82.183 Y40.334 E154.81886
G1 X80.668 Y43.015 E155.09893
G1 X79.460 Y45.868 E155.38071
G1 X78.585 Y48.841 E155.66248
G1 X78.055 Y51.893 E155.94426
G1 X77.864 Y55.213 E156.24664
G1 X77.652 Y56.851 E156.39690
G1 X77.555 Y57.215 E156.43114
G1 X76.911 Y58.769 E156.58409
G1 X76.723 Y59.095 E156.61833
G1 X75.699 Y60.429 E156.77128
G1 X75.433 Y60.695 E156.80552
G1 X74.099 Y61.719 E156.95847
G1 X73.773 Y61.907 E156.99271
G1 X72.219 Y62.551 E157.14565
G1 X71.856 Y62.648 E157.17989
G1 X70.188 Y62.868 E157.33284
G1 X69.812 Y62.868 E157.36708
G1 X68.145 Y62.648 E157.52001
G1 X67.781 Y62.551 E157.55426
G1 X66.227 Y61.907 E157.70720
G1 X65.901 Y61.719 E157.74144
G1 X64.567 Y60.695 E157.89438
G1 X64.301 Y60.429 E157.92863
G1 X63.277 Y59.095 E158.08158
G1 X63.089 Y58.769 E158.11582
G1 X62.445 Y57.215 E158.26878
G1 X62.348 Y56.851 E158.30301
G1 X62.136 Y55.242 E158.45064
G1 X62.125 Y54.983 E158.47423
G1 X62.346 Y50.676 E158.86643
G1 X62.985 Y46.470 E159.25332
G1 X64.037 Y42.348 E159.64021
G1 X65.437 Y38.482 E160.01414
G1 X67.205 Y34.774 E160.38773
G1 X67.801 Y34.977 F7800.000
G1 F1800
G1 X70.060 Y31.249 E160.78415
G1 X72.514 Y27.989 E161.15527
