; generated by Slic3r 1.3.0 on 2022-02-08 at 05:48:25

; external perimeters extrusion width = 0.55mm (4.37mm^3/s)
; perimeters extrusion width = 0.70mm (11.44mm^3/s)
; infill extrusion width = 0.62mm (13.45mm^3/s)
; solid infill extrusion width = 0.70mm (3.81mm^3/s)
; top infill extrusion width = 0.70mm (2.86mm^3/s)
; support material extrusion width = 0.55mm (8.74mm^3/s)

M190 S80 ; set bed temperature and wait for it to be reached
M104 S250 ; set temperature
G28 ; home all axes
G1 Z5 F5000 ; lift nozzle

; Filament gcode

M109 S250 ; set temperature and wait for it to be reached
G21 ; set units to millimeters
G90 ; use absolute coordinates
M82 ; use absolute distances for extrusion
G92 E0
G1 Z0.350 F7800.000
G1 E-2.00000 F2400.00000
G92 E0
G1 X68.668 Y92.969 F7800.000
G1 E2.00000 F2400.00000
G1 F1800
G1 X71.185 Y92.120 E2.24147
G1 X95.952 Y89.048 E4.51086
G1 X96.768 Y88.998 E4.58515
G1 X132.768 Y88.998 E7.85862
G1 X133.827 Y89.083 E7.95524
G1 X135.475 Y89.350 E8.10701
G1 X136.476 Y89.593 E8.20067
G1 X136.949 Y89.748 E8.24594
G1 X138.897 Y90.770 E8.44597
G1 X140.124 Y91.702 E8.58615
G1 X141.139 Y92.657 E8.71282
G1 X141.357 Y92.911 E8.74321
G1 X141.807 Y93.497 E8.81041
G1 X142.172 Y94.033 E8.86940
G1 X142.570 Y94.696 E8.93968
G1 X142.850 Y95.231 E8.99467
G1 X143.280 Y96.252 E9.09532
G1 X143.454 Y96.788 E9.14656
G1 X143.779 Y98.838 E9.33535
G1 X143.779 Y111.162 E10.45595
G1 X143.454 Y113.212 E10.64474
G1 X143.280 Y113.748 E10.69598
G1 X142.850 Y114.769 E10.79663
G1 X142.570 Y115.304 E10.85162
G1 X142.172 Y115.967 E10.92190
G1 X141.807 Y116.503 E10.98089
G1 X141.357 Y117.090 E11.04810
G1 X141.139 Y117.343 E11.07848
G1 X140.125 Y118.298 E11.20514
G1 X138.897 Y119.230 E11.34532
G1 X136.949 Y120.252 E11.54536
G1 X136.476 Y120.407 E11.59063
G1 X135.475 Y120.650 E11.68428
G1 X133.828 Y120.917 E11.83600
G1 X132.769 Y121.002 E11.93262
G1 X96.768 Y121.002 E15.20615
G1 X95.952 Y120.952 E15.28043
G1 X71.185 Y117.880 E17.54982
G1 X68.992 Y117.208 E17.75837
G1 X67.160 Y115.828 E17.96691
G1 X65.907 Y113.907 E18.17545
G1 X65.375 Y111.305 E18.41692
G1 X65.375 Y98.695 E19.56359
G1 X65.772 Y96.436 E19.77214
G1 X66.915 Y94.448 E19.98068
G1 X68.611 Y93.017 E20.18240
G1 E18.18240 F2400.00000
G92 E0
G1 X92.276 Y115.427 F7800.000
G1 E2.00000 F2400.00000
G1 F1800
G1 X70.293 Y115.427 E3.99934
G1 X67.878 Y113.013 E4.30989
G1 X67.878 Y96.987 E5.76733
G1 X70.293 Y94.573 E6.07788
G1 X92.276 Y94.573 E8.07722
G1 X92.455 Y94.432 E8.09787
G1 X92.646 Y93.662 E8.17007
G1 X93.542 Y92.394 E8.31123
G1 X95.065 Y91.388 E8.47724
G1 X96.582 Y91.062 E8.61839
G1 X99.223 Y91.490 E8.86170
G1 X99.563 Y91.566 E8.89335
G1 X100.471 Y91.857 E8.98004
G1 X100.788 Y91.991 E9.01133
G1 X101.144 Y92.177 E9.04793
G1 X101.434 Y92.362 E9.07921
G1 X103.028 Y93.573 E9.26130
G1 X103.424 Y93.965 E9.31190
G1 X104.659 Y95.401 E9.48414
G1 X104.695 Y95.657 E9.50766
G1 X105.080 Y95.785 E9.54458
G1 X106.293 Y94.573 E9.70055
G1 X128.276 Y94.573 E11.69988
G1 X128.455 Y94.432 E11.72053
G1 X128.646 Y93.662 E11.79274
G1 X129.542 Y92.394 E11.93389
G1 X131.065 Y91.388 E12.09990
G1 X132.582 Y91.062 E12.24105
G1 X135.223 Y91.490 E12.48436
G1 X135.563 Y91.566 E12.51601
G1 X136.471 Y91.857 E12.60270
G1 X136.788 Y91.991 E12.63399
G1 X137.144 Y92.177 E12.67059
G1 X137.434 Y92.362 E12.70187
G1 X139.028 Y93.573 E12.88396
G1 X139.424 Y93.965 E12.93456
G1 X140.659 Y95.401 E13.10680
G1 X140.706 Y95.732 E13.13726
G1 X140.773 Y95.846 E13.14927
G1 X140.955 Y95.980 E13.16978
G1 X141.164 Y96.654 E13.23397
G1 X141.535 Y97.362 E13.30673
G1 X141.529 Y97.849 E13.35102
G1 X141.904 Y99.070 E13.46713
G1 X141.003 Y101.631 E13.71408
G1 X138.504 Y103.327 E13.98874
G1 X138.427 Y103.471 E14.00358
G1 X138.427 Y106.527 E14.28149
G1 X138.503 Y106.671 E14.29627
G1 X141.003 Y108.369 E14.57111
G1 X141.904 Y110.930 E14.81805
G1 X141.529 Y112.151 E14.93416
G1 X141.535 Y112.638 E14.97845
G1 X141.164 Y113.346 E15.05122
G1 X140.955 Y114.020 E15.11540
G1 X140.773 Y114.154 E15.13592
G1 X140.706 Y114.268 E15.14793
G1 X140.659 Y114.599 E15.17838
G1 X139.424 Y116.035 E15.35063
G1 X139.028 Y116.427 E15.40122
G1 X137.434 Y117.638 E15.58331
G1 X137.144 Y117.823 E15.61459
G1 X136.788 Y118.010 E15.65120
G1 X136.471 Y118.143 E15.68249
G1 X135.717 Y118.390 E15.75460
G1 X135.380 Y118.478 E15.78625
G1 X133.388 Y118.807 E15.96990
G1 X132.865 Y118.849 E16.01759
G1 X131.061 Y118.849 E16.18173
G1 X128.646 Y116.435 E16.49229
G1 X128.646 Y115.989 E16.53283
G1 X128.619 Y115.898 E16.54142
G1 X128.484 Y115.688 E16.56411
G1 X128.455 Y115.568 E16.57541
G1 X128.276 Y115.427 E16.59606
G1 X106.293 Y115.427 E18.59540
G1 X105.080 Y114.215 E18.75137
G1 X104.695 Y114.343 E18.78829
G1 X104.659 Y114.599 E18.81181
G1 X103.424 Y116.035 E18.98405
G1 X103.028 Y116.427 E19.03464
G1 X101.434 Y117.638 E19.21673
G1 X101.144 Y117.823 E19.24802
G1 X100.788 Y118.010 E19.28463
G1 X100.471 Y118.143 E19.31591
G1 X99.717 Y118.390 E19.38803
G1 X99.380 Y118.478 E19.41967
G1 X97.388 Y118.807 E19.60333
G1 X96.865 Y118.849 E19.65101
G1 X95.061 Y118.849 E19.81516
G1 X92.646 Y116.435 E20.12571
G1 X92.646 Y115.989 E20.16626
G1 X92.619 Y115.898 E20.17484
G1 X92.484 Y115.688 E20.19754
G1 X92.455 Y115.568 E20.20884
G1 X92.335 Y115.474 E20.22267
G1 X92.768 Y114.802 F7800.000
G1 F1800
G1 X70.552 Y114.802 E22.24314
G1 X68.503 Y112.754 E22.50661
G1 X68.503 Y97.246 E23.91696
G1 X70.552 Y95.198 E24.18042
G1 X92.766 Y95.198 E26.20076
G1 X92.944 Y95.058 E26.22134
G1 X93.225 Y93.926 E26.32739
G1 X93.984 Y92.851 E26.44714
G1 X95.311 Y91.975 E26.59175
G1 X96.598 Y91.698 E26.71150
G1 X99.245 Y92.132 E26.95538
G1 X99.534 Y92.208 E26.98260
G1 X100.252 Y92.443 E27.05124
G1 X100.520 Y92.556 E27.07778
G1 X100.831 Y92.719 E27.10964
G1 X101.077 Y92.875 E27.13618
G1 X102.532 Y93.981 E27.30236
G1 X102.833 Y94.252 E27.33922
G1 X104.066 Y95.669 E27.51004
G1 X104.123 Y96.012 E27.54164
G1 X104.217 Y96.191 E27.56005
G1 X104.418 Y96.360 E27.58387
G1 X104.540 Y96.759 E27.62187
G1 X104.900 Y96.849 E27.65561
G1 X106.552 Y95.198 E27.86798
G1 X128.766 Y95.198 E29.88831
G1 X128.944 Y95.058 E29.90889
G1 X129.225 Y93.926 E30.01495
G1 X129.984 Y92.851 E30.13470
G1 X131.311 Y91.975 E30.27930
G1 X132.598 Y91.698 E30.39905
G1 X135.111 Y92.105 E30.63056
G1 X135.403 Y92.171 E30.65779
G1 X136.252 Y92.443 E30.73879
G1 X136.520 Y92.556 E30.76533
G1 X136.831 Y92.719 E30.79719
G1 X137.077 Y92.875 E30.82373
G1 X138.672 Y94.100 E31.00665
G1 X138.961 Y94.385 E31.04350
G1 X140.066 Y95.669 E31.19759
G1 X140.123 Y96.012 E31.22919
G1 X140.217 Y96.191 E31.24760
G1 X140.418 Y96.360 E31.27142
G1 X140.584 Y96.892 E31.32213
G1 X140.906 Y97.507 E31.38522
G1 X140.901 Y97.934 E31.42404
G1 X141.246 Y99.057 E31.53087
G1 X140.482 Y101.230 E31.74037
G1 X138.265 Y102.733 E31.98398
G1 X137.903 Y102.907 E32.02047
G1 X137.802 Y103.067 E32.03769
G1 X137.802 Y106.857 E32.38231
G1 X137.878 Y107.000 E32.39709
G1 X140.482 Y108.770 E32.68341
G1 X141.246 Y110.943 E32.89291
G1 X140.901 Y112.066 E32.99974
G1 X140.906 Y112.493 E33.03856
G1 X140.584 Y113.108 E33.10165
G1 X140.418 Y113.640 E33.15236
G1 X140.217 Y113.809 E33.17618
G1 X140.123 Y113.988 E33.19459
G1 X140.066 Y114.331 E33.22619
G1 X138.961 Y115.615 E33.38028
G1 X138.532 Y116.019 E33.43384
G1 X137.077 Y117.125 E33.60003
G1 X136.831 Y117.281 E33.62657
G1 X136.520 Y117.444 E33.65844
G1 X136.252 Y117.557 E33.68498
G1 X135.534 Y117.792 E33.75362
G1 X135.245 Y117.868 E33.78084
G1 X133.300 Y118.188 E33.96004
G1 X132.853 Y118.224 E34.00088
G1 X131.319 Y118.224 E34.14034
G1 X129.271 Y116.176 E34.40381
G1 X129.271 Y115.805 E34.43751
G1 X129.244 Y115.715 E34.44609
G1 X129.067 Y115.439 E34.47593
G1 X128.946 Y114.943 E34.52236
G1 X128.768 Y114.802 E34.54301
G1 X106.552 Y114.802 E36.56348
G1 X104.900 Y113.151 E36.77585
G1 X104.540 Y113.241 E36.80959
G1 X104.418 Y113.640 E36.84759
G1 X104.217 Y113.809 E36.87141
G1 X104.123 Y113.988 E36.88982
G1 X104.066 Y114.331 E36.92142
G1 X102.833 Y115.748 E37.09224
G1 X102.532 Y116.019 E37.12909
G1 X101.077 Y117.125 E37.29528
G1 X100.831 Y117.281 E37.32182
G1 X100.520 Y117.444 E37.35369
G1 X100.252 Y117.557 E37.38023
G1 X99.534 Y117.792 E37.44886
G1 X99.111 Y117.895 E37.48845
G1 X97.161 Y118.205 E37.66803
G1 X96.853 Y118.224 E37.69613
G1 X95.319 Y118.224 E37.83559
G1 X93.271 Y116.176 E38.09906
G1 X93.271 Y115.805 E38.13276
G1 X93.244 Y115.715 E38.14134
G1 X93.067 Y115.439 E38.17118
G1 X92.946 Y114.943 E38.21761
G1 X92.827 Y114.849 E38.23143
G1 X93.259 Y114.177 F7800.000
G1 F1800
G1 X70.810 Y114.177 E40.27305
G1 X69.128 Y112.495 E40.48943
G1 X69.128 Y97.505 E41.85268
G1 X70.810 Y95.823 E42.06906
G1 X93.255 Y95.823 E44.11034
G1 X93.434 Y95.683 E44.13092
G1 X93.803 Y94.191 E44.27075
G1 X94.427 Y93.307 E44.36910
G1 X95.557 Y92.561 E44.49230
G1 X96.615 Y92.334 E44.59065
G1 X99.109 Y92.742 E44.82052
G1 X100.032 Y93.028 E44.90844
G1 X100.253 Y93.122 E44.93024
G1 X100.720 Y93.389 E44.97911
G1 X102.141 Y94.469 E45.14143
G1 X102.498 Y94.805 E45.18603
G1 X103.472 Y95.938 E45.32196
G1 X103.520 Y96.206 E45.34671
G1 X103.730 Y96.608 E45.38802
G1 X103.881 Y96.740 E45.40622
G1 X104.003 Y97.131 E45.44344
G1 X104.276 Y97.651 E45.49686
G1 X104.273 Y98.018 E45.53022
G1 X104.569 Y98.982 E45.62191
G1 X105.128 Y98.898 E45.67330
G1 X105.128 Y97.505 E45.79996
G1 X106.810 Y95.823 E46.01634
G1 X129.255 Y95.823 E48.05762
G1 X129.434 Y95.683 E48.07819
G1 X129.803 Y94.191 E48.21803
G1 X130.427 Y93.307 E48.31638
G1 X131.557 Y92.561 E48.43958
G1 X132.615 Y92.334 E48.53793
G1 X134.999 Y92.720 E48.75763
G1 X135.244 Y92.775 E48.78044
G1 X136.032 Y93.028 E48.85575
G1 X136.253 Y93.122 E48.87755
G1 X136.720 Y93.389 E48.92642
G1 X138.256 Y94.566 E49.10248
G1 X138.498 Y94.805 E49.13335
G1 X139.472 Y95.938 E49.26928
G1 X139.520 Y96.206 E49.29403
G1 X139.730 Y96.608 E49.33534
G1 X139.881 Y96.740 E49.35353
G1 X140.003 Y97.131 E49.39076
G1 X140.276 Y97.651 E49.44418
G1 X140.273 Y98.018 E49.47753
G1 X140.588 Y99.043 E49.57509
G1 X139.960 Y100.828 E49.74715
G1 X137.953 Y102.190 E49.96778
G1 X137.566 Y102.376 E50.00678
G1 X137.306 Y102.455 E50.03155
G1 X137.177 Y102.629 E50.05121
G1 X137.177 Y107.254 E50.47181
G1 X137.346 Y107.441 E50.49472
G1 X137.429 Y107.450 E50.50230
G1 X139.960 Y109.172 E50.78075
G1 X140.588 Y110.957 E50.95281
G1 X140.273 Y111.982 E51.05036
G1 X140.276 Y112.349 E51.08371
G1 X140.003 Y112.869 E51.13713
G1 X139.881 Y113.260 E51.17436
G1 X139.730 Y113.392 E51.19255
G1 X139.520 Y113.794 E51.23386
G1 X139.472 Y114.062 E51.25862
G1 X138.498 Y115.195 E51.39454
G1 X138.141 Y115.531 E51.43914
G1 X136.720 Y116.611 E51.60146
G1 X136.517 Y116.740 E51.62325
G1 X136.032 Y116.972 E51.67213
G1 X135.109 Y117.258 E51.76006
G1 X133.213 Y117.569 E51.93480
G1 X132.840 Y117.599 E51.96880
G1 X131.578 Y117.599 E52.08357
G1 X129.896 Y115.917 E52.29996
G1 X129.896 Y115.622 E52.32681
G1 X129.869 Y115.531 E52.33539
G1 X129.649 Y115.189 E52.37238
G1 X129.438 Y114.318 E52.45393
G1 X129.259 Y114.177 E52.47458
G1 X106.810 Y114.177 E54.51619
G1 X105.128 Y112.495 E54.73257
G1 X105.128 Y111.102 E54.85924
G1 X104.569 Y111.018 E54.91063
G1 X104.273 Y111.982 E55.00232
G1 X104.276 Y112.349 E55.03567
G1 X104.003 Y112.869 E55.08909
G1 X103.881 Y113.260 E55.12632
G1 X103.730 Y113.392 E55.14451
G1 X103.520 Y113.794 E55.18582
G1 X103.472 Y114.062 E55.21058
G1 X102.498 Y115.195 E55.34651
G1 X102.141 Y115.531 E55.39110
G1 X100.720 Y116.611 E55.55342
G1 X100.517 Y116.740 E55.57522
G1 X100.032 Y116.972 E55.62409
G1 X99.351 Y117.194 E55.68925
G1 X98.999 Y117.280 E55.72221
G1 X97.098 Y117.583 E55.89727
G1 X96.840 Y117.599 E55.92080
G1 X95.578 Y117.599 E56.03557
G1 X93.896 Y115.917 E56.25195
G1 X93.896 Y115.622 E56.27880
G1 X93.869 Y115.531 E56.28739
G1 X93.649 Y115.189 E56.32437
G1 X93.438 Y114.318 E56.40592
G1 X93.318 Y114.224 E56.41975
G1 E54.41975 F2400.00000
G92 E0
G1 X129.750 Y113.552 F7800.000
G1 E2.00000 F2400.00000
G1 F1800
G1 X107.069 Y113.552 E4.06275
G1 X105.753 Y112.236 E4.23204
G1 X105.753 Y97.764 E5.54821
G1 X107.069 Y96.448 E5.71750
G1 X129.750 Y96.448 E7.78025
G1 X129.929 Y96.307 E7.80090
G1 X130.382 Y94.455 E7.97431
G1 X130.870 Y93.764 E8.05125
G1 X131.804 Y93.147 E8.15305
G1 X132.631 Y92.970 E8.23000
G1 X134.887 Y93.335 E8.43790
G1 X135.169 Y93.403 E8.46422
G1 X135.813 Y93.614 E8.52590
G1 X135.986 Y93.687 E8.54296
G1 X136.362 Y93.902 E8.58235
G1 X137.840 Y95.033 E8.75155
G1 X138.035 Y95.225 E8.77643
G1 X138.879 Y96.207 E8.89420
G1 X138.916 Y96.400 E8.91212
G1 X139.243 Y97.026 E8.97632
G1 X139.344 Y97.121 E8.98891
G1 X139.423 Y97.369 E9.01265
G1 X139.646 Y97.796 E9.05640
G1 X139.645 Y98.102 E9.08429
G1 X139.930 Y99.030 E9.17256
G1 X139.439 Y100.426 E9.30718
G1 X137.640 Y101.647 E9.50485
G1 X137.338 Y101.792 E9.53536
G1 X136.917 Y101.921 E9.57543
G1 X136.711 Y101.952 E9.59433
G1 X136.552 Y102.137 E9.61648
G1 X136.552 Y107.817 E10.13307
G1 X136.721 Y108.004 E10.15598
G1 X137.206 Y108.055 E10.20036
G1 X139.439 Y109.574 E10.44594
G1 X139.930 Y110.970 E10.58056
G1 X139.645 Y111.898 E10.66883
G1 X139.646 Y112.204 E10.69672
G1 X139.423 Y112.631 E10.74047
G1 X139.344 Y112.879 E10.76421
G1 X139.243 Y112.974 E10.77680
G1 X138.916 Y113.600 E10.84100
G1 X138.879 Y113.793 E10.85891
G1 X138.035 Y114.775 E10.97668
G1 X137.840 Y114.967 E11.00156
G1 X136.362 Y116.098 E11.17076
G1 X136.204 Y116.198 E11.18781
G1 X135.813 Y116.386 E11.22721
G1 X135.085 Y116.620 E11.29684
G1 X133.125 Y116.950 E11.47753
G1 X132.828 Y116.974 E11.50468
G1 X131.837 Y116.974 E11.59477
G1 X130.521 Y115.658 E11.76406
G1 X130.521 Y115.438 E11.78407
G1 X130.494 Y115.347 E11.79266
G1 X130.232 Y114.939 E11.83678
G1 X129.929 Y113.693 E11.95346
G1 X129.809 Y113.599 E11.96729
G1 X130.351 Y112.927 F7800.000
G1 F1800
G1 X107.328 Y112.927 E14.06113
G1 X106.378 Y111.977 E14.18334
G1 X106.378 Y98.023 E15.45242
G1 X107.328 Y97.073 E15.57462
G1 X130.351 Y97.073 E17.66846
G1 X130.548 Y96.828 E17.69701
G1 X130.500 Y96.605 E17.71777
G1 X130.960 Y94.720 E17.89429
G1 X131.312 Y94.221 E17.94983
G1 X132.050 Y93.734 E18.03023
G1 X132.647 Y93.605 E18.08578
G1 X134.837 Y93.963 E18.28761
G1 X135.594 Y94.200 E18.35975
G1 X135.891 Y94.343 E18.38967
G1 X137.423 Y95.499 E18.56427
G1 X137.571 Y95.645 E18.58317
G1 X138.286 Y96.475 E18.68278
G1 X138.312 Y96.594 E18.69386
G1 X138.756 Y97.443 E18.78096
G1 X138.807 Y97.501 E18.78798
G1 X138.842 Y97.608 E18.79824
G1 X139.016 Y97.940 E18.83232
G1 X139.017 Y98.187 E18.85474
G1 X139.272 Y99.017 E18.93373
G1 X138.918 Y100.025 E19.03091
G1 X137.328 Y101.103 E19.20561
G1 X137.110 Y101.208 E19.22764
G1 X136.778 Y101.310 E19.25922
G1 X136.538 Y101.346 E19.28125
G1 X136.119 Y101.346 E19.31933
G1 X135.927 Y101.538 E19.34406
G1 X135.927 Y108.379 E19.96624
G1 X136.096 Y108.567 E19.98915
G1 X136.984 Y108.660 E20.07034
G1 X138.918 Y109.975 E20.28305
G1 X139.272 Y110.983 E20.38022
G1 X139.017 Y111.813 E20.45922
G1 X139.016 Y112.060 E20.48164
G1 X138.842 Y112.392 E20.51571
G1 X138.807 Y112.499 E20.52598
G1 X138.756 Y112.557 E20.53300
G1 X138.312 Y113.406 E20.62010
G1 X138.286 Y113.525 E20.63118
G1 X137.571 Y114.355 E20.73079
G1 X137.423 Y114.501 E20.74968
G1 X136.005 Y115.584 E20.91202
G1 X135.594 Y115.800 E20.95419
G1 X134.925 Y116.016 E21.01813
G1 X132.973 Y116.339 E21.19807
G1 X132.096 Y116.349 E21.27785
G1 X131.146 Y115.399 E21.40005
G1 X131.146 Y115.254 E21.41321
G1 X131.119 Y115.164 E21.42180
G1 X130.814 Y114.690 E21.47307
G1 X130.500 Y113.395 E21.59426
G1 X130.548 Y113.172 E21.61502
G1 X130.398 Y112.986 E21.63675
G1 X131.269 Y112.302 F7800.000
G1 F1800
G1 X107.587 Y112.302 E23.79048
G1 X107.003 Y111.718 E23.86560
G1 X107.003 Y98.282 E25.08759
G1 X107.587 Y97.698 E25.16270
G1 X131.269 Y97.698 E27.31644
G1 X131.448 Y97.328 E27.35379
G1 X131.238 Y97.061 E27.38466
G1 X131.141 Y96.613 E27.42638
G1 X131.538 Y94.984 E27.57888
G1 X131.755 Y94.677 E27.61302
G1 X132.296 Y94.320 E27.67202
G1 X132.663 Y94.241 E27.70616
G1 X134.664 Y94.565 E27.89045
G1 X135.375 Y94.786 E27.95820
G1 X135.577 Y94.884 E27.97864
G1 X137.007 Y95.966 E28.14166
G1 X137.692 Y96.744 E28.23598
G1 X137.744 Y96.891 E28.25018
G1 X137.785 Y96.934 E28.25557
G1 X138.386 Y98.084 E28.37361
G1 X138.389 Y98.271 E28.39057
G1 X138.614 Y99.004 E28.46029
G1 X138.396 Y99.623 E28.52002
