; generated by Slic3r 1.3.0 on 2021-07-23 at 15:22:29

; external perimeters extrusion width = 0.55mm (3.04mm^3/s)
; perimeters extrusion width = 0.70mm (7.88mm^3/s)
; infill extrusion width = 0.62mm (9.31mm^3/s)
; solid infill extrusion width = 0.70mm (2.63mm^3/s)
; top infill extrusion width = 0.70mm (1.97mm^3/s)
; support material extrusion width = 0.55mm (6.08mm^3/s)

M190 S90 ; set bed temperature and wait for it to be reached
M104 S250 ; set temperature
G28 ; home all axes
G1 Z5 F5000 ; lift nozzle

; Filament gcode

M109 S250 ; set temperature and wait for it to be reached
G21 ; set units to millimeters
G90 ; use absolute coordinates
M82 ; use absolute distances for extrusion
G92 E0
G1 Z0.350 F7800.000
G1 E-2.00000 F2400.00000
G92 E0
G1 X43.534 Y6.359 F7800.000
G1 E2.00000 F2400.00000
G1 F1800
G1 X43.982 Y4.688 E2.15726
G1 X44.281 Y3.965 E2.22848
G1 X45.146 Y2.467 E2.38573
G1 X45.612 Y1.859 E2.45538
G1 X46.846 Y0.623 E2.61419
G1 X47.467 Y0.146 E2.68541
G1 X48.965 Y-0.719 E2.84266
G1 X49.688 Y-1.018 E2.91388
G1 X51.359 Y-1.466 E3.07112
G1 X52.135 Y-1.568 E3.14234
G1 X53.000 Y-1.625 E3.22113
G1 X157.000 Y-1.625 E12.67781
G1 X157.865 Y-1.568 E12.75661
G1 X158.641 Y-1.466 E12.82782
G1 X160.312 Y-1.018 E12.98507
G1 X161.035 Y-0.719 E13.05629
G1 X162.533 Y0.146 E13.21353
G1 X163.154 Y0.623 E13.28476
G1 X164.377 Y1.845 E13.44192
G1 X164.854 Y2.467 E13.51323
G1 X165.718 Y3.964 E13.67037
G1 X166.018 Y4.688 E13.74170
G1 X166.466 Y6.357 E13.89882
G1 X166.568 Y7.135 E13.97017
G1 X166.625 Y8.000 E14.04897
G1 X166.625 Y202.000 E31.68931
G1 X166.568 Y202.865 E31.76810
G1 X166.466 Y203.641 E31.83932
G1 X166.018 Y205.312 E31.99658
G1 X165.719 Y206.035 E32.06779
G1 X164.854 Y207.533 E32.22504
G1 X164.377 Y208.154 E32.29625
G1 X163.155 Y209.377 E32.45344
G1 X162.533 Y209.854 E32.52473
G1 X161.037 Y210.718 E32.68181
G1 X160.312 Y211.018 E32.75320
G1 X158.642 Y211.466 E32.91035
G1 X157.865 Y211.568 E32.98167
G1 X157.000 Y211.625 E33.06047
G1 X53.000 Y211.625 E42.51714
G1 X52.135 Y211.568 E42.59594
G1 X51.357 Y211.466 E42.66728
G1 X49.688 Y211.018 E42.82440
G1 X48.963 Y210.718 E42.89576
G1 X47.467 Y209.854 E43.05288
G1 X46.845 Y209.377 E43.12418
G1 X45.623 Y208.154 E43.28135
G1 X45.146 Y207.533 E43.35257
G1 X44.281 Y206.035 E43.50982
G1 X43.982 Y205.312 E43.58103
G1 X43.534 Y203.641 E43.73829
G1 X43.432 Y202.864 E43.80954
G1 X43.375 Y202.000 E43.88830
G1 X43.375 Y8.000 E61.52864
G1 X43.432 Y7.135 E61.60744
G1 X43.524 Y6.433 E61.67183
G1 E59.67183 F2400.00000
G92 E0
G1 X46.015 Y6.686 F7800.000
G1 E2.00000 F2400.00000
G1 F1800
G1 X46.051 Y6.418 E2.02457
G1 X46.191 Y5.896 E2.07371
G1 X46.697 Y4.673 E2.19408
G1 X46.967 Y4.205 E2.24322
G1 X47.598 Y3.383 E2.33746
G1 X47.773 Y3.155 E2.36359
G1 X48.155 Y2.773 E2.41273
G1 X49.205 Y1.967 E2.53310
G1 X49.673 Y1.697 E2.58224
G1 X50.896 Y1.191 E2.70261
G1 X51.418 Y1.051 E2.75174
G1 X52.596 Y0.896 E2.85981
G1 X52.865 Y0.878 E2.88436
G1 X157.135 Y0.878 E12.36725
G1 X157.404 Y0.896 E12.39179
G1 X158.582 Y1.051 E12.49987
G1 X159.104 Y1.191 E12.54902
G1 X160.327 Y1.697 E12.66937
G1 X160.795 Y1.967 E12.71850
G1 X161.845 Y2.773 E12.83886
G1 X162.227 Y3.155 E12.88797
G1 X163.033 Y4.205 E13.00837
G1 X163.303 Y4.672 E13.05747
G1 X163.809 Y5.896 E13.17787
G1 X163.949 Y6.417 E13.22697
G1 X164.104 Y7.596 E13.33510
G1 X164.122 Y7.865 E13.35965
G1 X164.122 Y202.135 E31.02767
G1 X164.104 Y202.405 E31.05226
G1 X163.949 Y203.583 E31.16029
G1 X163.809 Y204.105 E31.20949
G1 X163.303 Y205.327 E31.32981
G1 X163.032 Y205.796 E31.37902
G1 X162.227 Y206.845 E31.49926
G1 X161.845 Y207.227 E31.54839
G1 X160.795 Y208.033 E31.66876
G1 X160.328 Y208.302 E31.71785
G1 X159.104 Y208.809 E31.83828
G1 X158.583 Y208.949 E31.88739
G1 X157.404 Y209.104 E31.99550
G1 X157.135 Y209.122 E32.02005
G1 X52.865 Y209.122 E41.50294
G1 X52.596 Y209.104 E41.52749
G1 X51.417 Y208.949 E41.63561
G1 X50.896 Y208.809 E41.68471
G1 X49.672 Y208.303 E41.80513
G1 X49.205 Y208.033 E41.85422
G1 X48.155 Y207.227 E41.97461
G1 X47.773 Y206.845 E42.02373
G1 X46.968 Y205.796 E42.14401
G1 X46.697 Y205.327 E42.19319
G1 X46.191 Y204.104 E42.31358
G1 X46.051 Y203.582 E42.36272
G1 X45.896 Y202.404 E42.47081
G1 X45.878 Y202.135 E42.49534
G1 X45.878 Y7.865 E60.16334
G1 X45.896 Y7.596 E60.18789
G1 X46.006 Y6.760 E60.26456
G1 X46.635 Y6.767 F7800.000
G1 F1800
G1 X46.665 Y6.540 E60.28541
G1 X46.784 Y6.097 E60.32710
G1 X47.259 Y4.950 E60.44002
G1 X47.488 Y4.553 E60.48171
G1 X48.094 Y3.763 E60.57222
G1 X48.244 Y3.568 E60.59463
G1 X48.568 Y3.244 E60.63631
G1 X49.553 Y2.488 E60.74923
G1 X49.950 Y2.259 E60.79092
G1 X51.097 Y1.784 E60.90384
G1 X51.540 Y1.665 E60.94552
G1 X52.886 Y1.503 E61.06879
G1 X157.114 Y1.503 E70.54796
G1 X158.460 Y1.665 E70.67123
G1 X158.903 Y1.784 E70.71293
G1 X160.050 Y2.259 E70.82583
G1 X160.447 Y2.488 E70.86752
G1 X161.432 Y3.244 E70.98043
G1 X161.756 Y3.568 E71.02209
G1 X162.512 Y4.553 E71.13503
G1 X162.741 Y4.950 E71.17669
G1 X163.216 Y6.097 E71.28963
G1 X163.335 Y6.539 E71.33129
G1 X163.497 Y7.886 E71.45461
G1 X163.497 Y202.115 E89.11891
G1 X163.335 Y203.460 E89.24218
G1 X163.216 Y203.904 E89.28393
G1 X162.741 Y205.050 E89.39680
G1 X162.511 Y205.448 E89.43855
G1 X161.756 Y206.432 E89.55136
G1 X161.432 Y206.756 E89.59303
G1 X160.447 Y207.512 E89.70595
G1 X160.051 Y207.741 E89.74760
G1 X158.903 Y208.216 E89.86057
G1 X158.461 Y208.335 E89.90223
G1 X157.114 Y208.497 E90.02554
G1 X52.886 Y208.497 E99.50471
G1 X51.539 Y208.335 E99.62803
G1 X51.097 Y208.216 E99.66968
G1 X49.949 Y207.741 E99.78264
G1 X49.553 Y207.512 E99.82429
G1 X48.568 Y206.756 E99.93723
G1 X48.244 Y206.432 E99.97889
G1 X47.488 Y205.448 E100.09173
G1 X47.259 Y205.050 E100.13346
G1 X46.784 Y203.903 E100.24639
G1 X46.665 Y203.460 E100.28809
G1 X46.503 Y202.114 E100.41136
G1 X46.503 Y7.886 E118.07564
G1 X46.625 Y6.841 E118.17125
G1 X47.255 Y6.849 F7800.000
G1 F1800
G1 X47.279 Y6.662 E118.18837
G1 X47.377 Y6.298 E118.22260
G1 X47.821 Y5.227 E118.32807
G1 X48.009 Y4.901 E118.36231
G1 X48.590 Y4.144 E118.44910
G1 X48.715 Y3.981 E118.46778
G1 X48.981 Y3.715 E118.50201
G1 X49.901 Y3.009 E118.60748
G1 X50.227 Y2.821 E118.64172
G1 X51.298 Y2.377 E118.74718
G1 X51.662 Y2.279 E118.78142
G1 X52.906 Y2.128 E118.89538
G1 X157.094 Y2.128 E128.37083
G1 X158.338 Y2.279 E128.48480
G1 X158.702 Y2.377 E128.51905
G1 X159.773 Y2.821 E128.62450
G1 X160.099 Y3.009 E128.65874
G1 X161.019 Y3.715 E128.76419
G1 X161.285 Y3.981 E128.79841
G1 X161.991 Y4.901 E128.90390
G1 X162.179 Y5.227 E128.93811
G1 X162.623 Y6.298 E129.04360
G1 X162.721 Y6.662 E129.07781
G1 X162.872 Y7.906 E129.19181
G1 X162.872 Y202.094 E146.85239
G1 X162.721 Y203.338 E146.96636
G1 X162.623 Y203.702 E147.00065
G1 X162.179 Y204.773 E147.10607
G1 X161.991 Y205.100 E147.14036
G1 X161.285 Y206.019 E147.24574
G1 X161.019 Y206.285 E147.27997
G1 X160.099 Y206.991 E147.38544
G1 X159.774 Y207.179 E147.41963
G1 X158.702 Y207.623 E147.52515
G1 X158.338 Y207.721 E147.55936
G1 X157.094 Y207.872 E147.67336
G1 X52.906 Y207.872 E157.14881
G1 X51.662 Y207.721 E157.26282
G1 X51.298 Y207.623 E157.29703
G1 X50.227 Y207.179 E157.40252
G1 X49.901 Y206.991 E157.43673
G1 X48.981 Y206.285 E157.54221
G1 X48.715 Y206.019 E157.57643
G1 X48.009 Y205.099 E157.68184
G1 X47.821 Y204.773 E157.71611
G1 X47.377 Y203.702 E157.82158
G1 X47.279 Y203.338 E157.85583
G1 X47.128 Y202.094 E157.96980
G1 X47.128 Y7.906 E175.63036
G1 X47.245 Y6.923 E175.72038
G1 X47.874 Y6.930 F7800.000
G1 F1800
G1 X47.894 Y6.784 E175.73378
G1 X47.970 Y6.500 E175.76057
G1 X48.382 Y5.504 E175.85858
G1 X48.530 Y5.249 E175.88537
G1 X49.086 Y4.524 E175.96843
G1 X49.186 Y4.394 E175.98338
G1 X49.394 Y4.186 E176.01017
G1 X50.249 Y3.530 E176.10818
G1 X50.504 Y3.382 E176.13497
G1 X51.500 Y2.970 E176.23299
G1 X51.784 Y2.894 E176.25977
G1 X52.926 Y2.753 E176.36443
G1 X157.074 Y2.753 E185.83616
G1 X158.216 Y2.894 E185.94083
G1 X158.500 Y2.970 E185.96762
G1 X159.496 Y3.382 E186.06562
G1 X159.751 Y3.530 E186.09241
G1 X160.606 Y4.186 E186.19042
G1 X160.814 Y4.394 E186.21719
G1 X161.470 Y5.249 E186.31522
G1 X161.618 Y5.504 E186.34199
G1 X162.030 Y6.500 E186.44002
G1 X162.106 Y6.784 E186.46678
G1 X162.247 Y7.926 E186.57148
G1 X162.247 Y202.074 E204.22833
G1 X162.106 Y203.216 E204.33300
G1 X162.030 Y203.501 E204.35982
G1 X161.618 Y204.496 E204.45781
G1 X161.470 Y204.752 E204.48463
G1 X160.814 Y205.606 E204.58258
G1 X160.606 Y205.814 E204.60936
G1 X159.751 Y206.470 E204.70737
G1 X159.496 Y206.617 E204.73413
G1 X158.500 Y207.030 E204.83218
G1 X158.216 Y207.106 E204.85895
G1 X157.074 Y207.247 E204.96364
G1 X52.926 Y207.247 E214.43537
G1 X51.784 Y207.106 E214.54007
G1 X51.500 Y207.030 E214.56683
G1 X50.504 Y206.617 E214.66487
G1 X50.249 Y206.470 E214.69163
G1 X49.394 Y205.814 E214.78966
G1 X49.186 Y205.606 E214.81643
G1 X48.530 Y204.751 E214.91440
G1 X48.382 Y204.496 E214.94121
G1 X47.970 Y203.500 E215.03923
G1 X47.894 Y203.216 E215.06602
G1 X47.753 Y202.074 E215.17069
G1 X47.753 Y7.926 E232.82753
G1 X47.865 Y7.005 E232.91198
G1 X48.494 Y7.012 F7800.000
G1 F1800
G1 X48.563 Y6.701 E232.94093
G1 X48.944 Y5.781 E233.03149
G1 X49.050 Y5.597 E233.05083
G1 X49.581 Y4.905 E233.13016
G1 X49.807 Y4.657 E233.16067
G1 X50.597 Y4.050 E233.25123
G1 X50.781 Y3.944 E233.27057
G1 X51.701 Y3.563 E233.36113
G1 X51.906 Y3.508 E233.38046
G1 X52.947 Y3.378 E233.47583
G1 X157.053 Y3.378 E242.94383
G1 X158.094 Y3.508 E243.03920
G1 X158.299 Y3.563 E243.05854
G1 X159.219 Y3.944 E243.14909
G1 X159.403 Y4.050 E243.16843
G1 X160.193 Y4.657 E243.25899
G1 X160.343 Y4.807 E243.27831
G1 X160.950 Y5.597 E243.36889
G1 X161.056 Y5.781 E243.38821
G1 X161.437 Y6.701 E243.47878
G1 X161.492 Y6.906 E243.49810
G1 X161.622 Y7.947 E243.59349
G1 X161.622 Y202.053 E261.24662
G1 X161.492 Y203.094 E261.34198
G1 X161.437 Y203.299 E261.36134
G1 X161.056 Y204.219 E261.45188
G1 X160.949 Y204.403 E261.47125
G1 X160.343 Y205.193 E261.56176
G1 X160.193 Y205.343 E261.58109
G1 X159.403 Y205.950 E261.67166
G1 X159.219 Y206.056 E261.69097
G1 X158.299 Y206.437 E261.78156
G1 X158.094 Y206.492 E261.80088
G1 X157.053 Y206.622 E261.89626
G1 X52.947 Y206.622 E271.36427
G1 X51.906 Y206.492 E271.45966
G1 X51.701 Y206.437 E271.47898
G1 X50.781 Y206.056 E271.56956
G1 X50.597 Y205.950 E271.58888
G1 X49.807 Y205.343 E271.67945
G1 X49.657 Y205.193 E271.69878
G1 X49.051 Y204.403 E271.78930
G1 X48.944 Y204.219 E271.80866
G1 X48.563 Y203.299 E271.89923
G1 X48.508 Y203.094 E271.91857
G1 X48.378 Y202.053 E272.01393
G1 X48.378 Y7.947 E289.66705
G1 X48.484 Y7.086 E289.74592
G1 X49.114 Y7.093 F7800.000
G1 F1800
G1 X49.156 Y6.902 E289.76372
G1 X49.506 Y6.058 E289.84683
G1 X49.571 Y5.945 E289.85871
G1 X50.077 Y5.285 E289.93432
G1 X50.220 Y5.127 E289.95367
G1 X50.945 Y4.571 E290.03678
G1 X51.058 Y4.506 E290.04867
G1 X51.902 Y4.156 E290.13178
G1 X52.029 Y4.122 E290.14366
G1 X52.967 Y4.003 E290.22972
G1 X157.033 Y4.003 E299.69401
G1 X157.971 Y4.122 E299.78007
G1 X158.098 Y4.156 E299.79196
G1 X158.942 Y4.506 E299.87507
G1 X159.055 Y4.571 E299.88695
G1 X159.780 Y5.127 E299.97006
G1 X159.872 Y5.220 E299.98194
G1 X160.429 Y5.945 E300.06506
G1 X160.494 Y6.058 E300.07693
G1 X160.844 Y6.902 E300.16005
G1 X160.878 Y7.028 E300.17193
G1 X160.997 Y7.967 E300.25800
G1 X160.997 Y202.033 E317.90741
G1 X160.878 Y202.971 E317.99347
G1 X160.844 Y203.098 E318.00537
G1 X160.494 Y203.942 E318.08847
G1 X160.429 Y204.055 E318.10037
G1 X159.873 Y204.780 E318.18345
G1 X159.780 Y204.872 E318.19533
G1 X159.055 Y205.429 E318.27845
G1 X158.942 Y205.494 E318.29032
G1 X158.098 Y205.844 E318.37345
G1 X157.971 Y205.878 E318.38532
G1 X157.033 Y205.997 E318.47139
G1 X52.967 Y205.997 E327.93568
G1 X52.028 Y205.878 E328.02176
G1 X51.902 Y205.844 E328.03363
G1 X51.058 Y205.494 E328.11675
G1 X50.945 Y205.429 E328.12863
G1 X50.220 Y204.872 E328.21175
G1 X50.127 Y204.780 E328.22362
G1 X49.571 Y204.055 E328.30671
G1 X49.506 Y203.942 E328.31861
G1 X49.156 Y203.098 E328.40173
G1 X49.122 Y202.971 E328.41361
G1 X49.003 Y202.033 E328.49968
G1 X49.003 Y7.967 E346.14907
G1 X49.104 Y7.168 E346.22237
G1 X49.733 Y7.175 F7800.000
G1 F1800
G1 X50.068 Y6.335 E346.30458
G1 X50.633 Y5.598 E346.38903
G1 X51.293 Y5.092 E346.46469
G1 X52.104 Y4.749 E346.54475
G1 X52.988 Y4.628 E346.62591
G1 X157.012 Y4.628 E356.08647
G1 X157.896 Y4.749 E356.16763
G1 X158.707 Y5.092 E356.24769
G1 X159.402 Y5.633 E356.32774
G1 X159.932 Y6.335 E356.40780
G1 X160.263 Y7.151 E356.48786
G1 X160.372 Y7.988 E356.56462
G1 X160.372 Y202.012 E374.21030
G1 X160.251 Y202.896 E374.29147
G1 X159.908 Y203.707 E374.37152
G1 X159.367 Y204.402 E374.45157
G1 X158.665 Y204.932 E374.53162
G1 X157.849 Y205.263 E374.61169
G1 X157.012 Y205.372 E374.68845
G1 X52.988 Y205.372 E384.14902
G1 X52.104 Y205.251 E384.23018
G1 X51.293 Y204.908 E384.31023
G1 X50.598 Y204.367 E384.39029
G1 X50.068 Y203.665 E384.47035
G1 X49.737 Y202.849 E384.55041
G1 X49.628 Y202.012 E384.62717
G1 X49.628 Y7.988 E402.27284
G1 X49.724 Y7.249 E402.34057
G1 E400.34057 F2400.00000
G92 E0
G1 X63.000 Y191.032 F7800.000
G1 E2.00000 F2400.00000
G1 F1800
G1 X63.250 Y191.065 E2.02297
G1 X63.484 Y191.162 E2.04594
G1 X63.684 Y191.316 E2.06892
G1 X63.838 Y191.516 E2.09189
G1 X63.935 Y191.750 E2.11486
G1 X63.968 Y192.000 E2.13783
G1 X63.935 Y192.250 E2.16080
G1 X63.838 Y192.484 E2.18377
G1 X63.684 Y192.684 E2.20674
G1 X63.484 Y192.838 E2.22971
G1 X63.250 Y192.935 E2.25269
G1 X63.000 Y192.968 E2.27566
G1 X62.750 Y192.935 E2.29863
G1 X62.516 Y192.838 E2.32160
G1 X62.316 Y192.684 E2.34457
G1 X62.162 Y192.484 E2.36754
G1 X62.065 Y192.250 E2.39051
G1 X62.032 Y192.000 E2.41349
G1 X62.065 Y191.750 E2.43646
G1 X62.162 Y191.516 E2.45943
G1 X62.316 Y191.316 E2.48240
G1 X62.516 Y191.162 E2.50537
G1 X62.750 Y191.065 E2.52834
G1 X62.926 Y191.042 E2.54449
G1 X63.082 Y190.413 F7800.000
G1 F1800
G1 X63.414 Y190.457 E2.57495
G1 X63.799 Y190.616 E2.61288
G1 X64.130 Y190.870 E2.65082
G1 X64.384 Y191.201 E2.68876
G1 X64.543 Y191.586 E2.72670
G1 X64.598 Y192.000 E2.76464
G1 X64.544 Y192.414 E2.80257
G1 X64.384 Y192.799 E2.84051
G1 X64.130 Y193.130 E2.87845
G1 X63.799 Y193.384 E2.91639
G1 X63.414 Y193.544 E2.95433
G1 X63.000 Y193.598 E2.99226
G1 X62.586 Y193.544 E3.03020
G1 X62.201 Y193.384 E3.06814
G1 X61.870 Y193.130 E3.10608
G1 X61.616 Y192.799 E3.14401
G1 X61.456 Y192.414 E3.18195
G1 X61.402 Y192.000 E3.21989
G1 X61.456 Y191.586 E3.25783
G1 X61.616 Y191.201 E3.29577
G1 X61.870 Y190.870 E3.33370
G1 X62.201 Y190.616 E3.37164
G1 X62.586 Y190.456 E3.40958
G1 X63.007 Y190.403 E3.44816
G1 X63.163 Y189.793 F7800.000
G1 F1800
G1 X63.577 Y189.848 E3.48610
G1 X64.114 Y190.070 E3.53900
G1 X64.576 Y190.424 E3.59191
G1 X64.930 Y190.886 E3.64481
G1 X65.152 Y191.423 E3.69771
G1 X65.228 Y192.000 E3.75062
G1 X65.152 Y192.577 E3.80352
G1 X64.930 Y193.114 E3.85643
G1 X64.576 Y193.576 E3.90933
G1 X64.114 Y193.930 E3.96224
G1 X63.577 Y194.152 E4.01514
G1 X63.000 Y194.228 E4.06804
G1 X62.423 Y194.152 E4.12095
G1 X61.886 Y193.930 E4.17385
G1 X61.424 Y193.576 E4.22676
G1 X61.070 Y193.114 E4.27966
G1 X60.848 Y192.577 E4.33257
G1 X60.772 Y192.000 E4.38547
G1 X60.848 Y191.423 E4.43837
G1 X61.070 Y190.886 E4.49128
G1 X61.424 Y190.424 E4.54418
G1 X61.886 Y190.070 E4.59709
G1 X62.423 Y189.848 E4.65000
G1 X63.000 Y189.772 E4.70289
G1 X63.089 Y189.783 E4.71104
G1 E2.71104 F2400.00000
G92 E0
G1 X146.032 Y192.000 F7800.000
G1 E2.00000 F2400.00000
G1 F1800
G1 X146.065 Y191.750 E2.02297
G1 X146.162 Y191.516 E2.04594
G1 X146.316 Y191.316 E2.06891
G1 X146.516 Y191.162 E2.09188
G1 X146.750 Y191.065 E2.11486
G1 X147.000 Y191.032 E2.13782
G1 X147.250 Y191.065 E2.16080
G1 X147.484 Y191.162 E2.18377
G1 X147.684 Y191.316 E2.20674
G1 X147.838 Y191.516 E2.22971
G1 X147.935 Y191.750 E2.25268
G1 X147.968 Y192.000 E2.27565
G1 X147.935 Y192.250 E2.29862
G1 X147.838 Y192.484 E2.32159
G1 X147.684 Y192.684 E2.34456
G1 X147.484 Y192.838 E2.36754
G1 X147.250 Y192.935 E2.39051
G1 X147.000 Y192.968 E2.41348
G1 X146.750 Y192.935 E2.43645
G1 X146.516 Y192.838 E2.45942
G1 X146.316 Y192.684 E2.48239
G1 X146.162 Y192.484 E2.50536
G1 X146.065 Y192.250 E2.52833
G1 X146.042 Y192.074 E2.54448
G1 X145.413 Y192.082 F7800.000
G1 F1800
G1 X145.402 Y192.000 E2.55197
G1 X145.457 Y191.586 E2.58990
