; generated by Slic3r 1.3.0 on 2021-07-28 at 03:13:25

; external perimeters extrusion width = 0.55mm (2.33mm^3/s)
; perimeters extrusion width = 0.70mm (6.01mm^3/s)
; infill extrusion width = 0.62mm (7.11mm^3/s)
; solid infill extrusion width = 0.70mm (2.00mm^3/s)
; top infill extrusion width = 0.70mm (1.50mm^3/s)
; support material extrusion width = 0.55mm (4.66mm^3/s)

M190 S80 ; set bed temperature and wait for it to be reached
M104 S250 ; set temperature
G28 ; home all axes
G1 Z5 F5000 ; lift nozzle

; Filament gcode

M109 S250 ; set temperature and wait for it to be reached
G21 ; set units to millimeters
G90 ; use absolute coordinates
M82 ; use absolute distances for extrusion
G92 E0
G1 Z0.350 F7800.000
G1 E-2.00000 F2400.00000
G92 E0
G1 X89.915 Y95.753 F7800.000
G1 E2.00000 F2400.00000
G1 F1800
G1 X91.668 Y94.274 E2.20854
G1 X93.820 Y93.481 E2.41708
G1 X95.000 Y93.375 E2.52479
G1 X115.000 Y93.375 E4.34339
G1 X117.259 Y93.772 E4.55193
G1 X119.247 Y94.915 E4.76047
G1 X120.726 Y96.668 E4.96901
G1 X121.519 Y98.820 E5.17755
G1 X121.625 Y100.000 E5.28526
G1 X121.625 Y110.000 E6.19456
G1 X121.228 Y112.259 E6.40310
G1 X120.085 Y114.247 E6.61164
G1 X118.332 Y115.726 E6.82019
G1 X116.180 Y116.519 E7.02873
G1 X115.000 Y116.625 E7.13644
G1 X95.000 Y116.625 E8.95503
G1 X92.741 Y116.228 E9.16357
G1 X90.753 Y115.085 E9.37211
G1 X89.274 Y113.332 E9.58066
G1 X88.481 Y111.180 E9.78920
G1 X88.375 Y110.000 E9.89691
G1 X88.375 Y100.000 E10.80620
G1 X88.772 Y97.741 E11.01475
G1 X89.878 Y95.818 E11.21647
G1 E9.21647 F2400.00000
G92 E0
G1 X91.667 Y97.504 F7800.000
G1 E2.00000 F2400.00000
G1 F1800
G1 X93.293 Y95.878 E2.20914
G1 X116.707 Y95.878 E4.33861
G1 X119.122 Y98.293 E4.64917
G1 X119.122 Y111.707 E5.86919
G1 X116.707 Y114.122 E6.17975
G1 X93.293 Y114.122 E8.30922
G1 X90.878 Y111.707 E8.61978
G1 X90.878 Y98.293 E9.83979
G1 X91.613 Y97.557 E9.93438
G1 X92.108 Y97.946 F7800.000
G1 F1800
G1 X93.552 Y96.503 E10.11998
G1 X116.448 Y96.503 E12.20237
G1 X118.497 Y98.552 E12.46584
G1 X118.497 Y111.448 E13.63876
G1 X116.448 Y113.497 E13.90223
G1 X93.552 Y113.497 E15.98461
G1 X91.503 Y111.448 E16.24808
G1 X91.503 Y98.552 E17.42101
G1 X92.055 Y97.999 E17.49206
G1 X92.550 Y98.388 F7800.000
G1 F1800
G1 X93.810 Y97.128 E17.65411
G1 X116.190 Y97.128 E19.68941
G1 X117.872 Y98.810 E19.90579
G1 X117.872 Y111.190 E21.03163
G1 X116.190 Y112.872 E21.24801
G1 X93.810 Y112.872 E23.28330
G1 X92.128 Y111.190 E23.49968
G1 X92.128 Y98.810 E24.62552
G1 X92.497 Y98.441 E24.67302
G1 X92.992 Y98.830 F7800.000
G1 F1800
G1 X94.069 Y97.753 E24.81153
G1 X115.931 Y97.753 E26.79974
G1 X117.247 Y99.069 E26.96903
G1 X117.247 Y110.931 E28.04778
G1 X115.931 Y112.247 E28.21707
G1 X94.069 Y112.247 E30.20528
G1 X92.753 Y110.931 E30.37457
G1 X92.753 Y99.069 E31.45332
G1 X92.939 Y98.883 E31.47728
G1 X93.434 Y99.272 F7800.000
G1 F1800
G1 X94.328 Y98.378 E31.59225
G1 X115.672 Y98.378 E33.53336
G1 X116.622 Y99.328 E33.65557
G1 X116.622 Y110.672 E34.68723
G1 X115.672 Y111.622 E34.80943
G1 X94.328 Y111.622 E36.75055
G1 X93.378 Y110.672 E36.87275
G1 X93.381 Y99.325 E37.90471
G1 X94.003 Y99.587 F7800.000
G1 F1800
G1 X94.587 Y99.003 E37.97982
G1 X115.413 Y99.003 E39.87385
G1 X115.997 Y99.587 E39.94896
G1 X115.997 Y110.413 E40.93353
G1 X115.413 Y110.997 E41.00865
G1 X94.587 Y110.997 E42.90268
G1 X94.003 Y110.413 E42.97779
G1 X94.003 Y99.662 E43.95554
G1 X94.846 Y99.628 F7800.000
G1 F1800
G1 X115.154 Y99.628 E45.80248
G1 X115.372 Y99.846 E45.83051
G1 X115.372 Y110.154 E46.76799
G1 X115.154 Y110.372 E46.79602
G1 X94.846 Y110.372 E48.64296
G1 X94.628 Y110.154 E48.67098
G1 X94.628 Y99.846 E49.60847
G1 X94.793 Y99.681 E49.62967
G1 E47.62967 F2400.00000
G92 E0
G1 X104.104 Y104.483 F7800.000
G1 E2.00000 F2400.00000
G1 F1800
G1 X104.269 Y104.269 E2.02456
G1 X104.483 Y104.104 E2.04912
G1 X104.732 Y104.001 E2.07367
G1 X105.000 Y103.966 E2.09823
G1 X105.268 Y104.001 E2.12279
G1 X105.517 Y104.104 E2.14735
G1 X105.731 Y104.269 E2.17191
G1 X105.896 Y104.483 E2.19646
G1 X105.999 Y104.732 E2.22102
G1 X106.034 Y105.000 E2.24558
G1 X105.999 Y105.268 E2.27014
G1 X105.896 Y105.517 E2.29470
G1 X105.731 Y105.731 E2.31925
G1 X105.517 Y105.896 E2.34381
G1 X105.268 Y105.999 E2.36837
G1 X105.000 Y106.034 E2.39293
G1 X104.732 Y105.999 E2.41749
G1 X104.483 Y105.896 E2.44204
G1 X104.269 Y105.731 E2.46660
G1 X104.104 Y105.517 E2.49116
G1 X104.001 Y105.268 E2.51572
G1 X103.966 Y105.000 E2.54028
G1 X104.001 Y104.732 E2.56483
G1 X104.075 Y104.552 E2.58257
G1 X103.527 Y104.244 F7800.000
G1 F1800
G1 X103.558 Y104.168 E2.59005
G1 X103.823 Y103.823 E2.62958
G1 X104.168 Y103.558 E2.66910
G1 X104.569 Y103.392 E2.70863
G1 X105.000 Y103.335 E2.74815
G1 X105.431 Y103.392 E2.78768
G1 X105.832 Y103.558 E2.82720
G1 X106.177 Y103.823 E2.86673
G1 X106.442 Y104.168 E2.90625
G1 X106.608 Y104.569 E2.94578
G1 X106.665 Y105.000 E2.98530
G1 X106.608 Y105.431 E3.02482
G1 X106.442 Y105.832 E3.06435
G1 X106.177 Y106.177 E3.10387
G1 X105.832 Y106.442 E3.14340
G1 X105.431 Y106.608 E3.18292
G1 X105.000 Y106.665 E3.22245
G1 X104.569 Y106.608 E3.26197
G1 X104.168 Y106.442 E3.30150
G1 X103.823 Y106.177 E3.34102
G1 X103.558 Y105.832 E3.38055
G1 X103.392 Y105.431 E3.42007
G1 X103.335 Y105.000 E3.45960
G1 X103.392 Y104.569 E3.49912
G1 X103.498 Y104.313 E3.52434
G1 E1.52434 F2400.00000
G92 E0
G1 X114.650 Y109.650 F7800.000
G1 E2.00000 F2400.00000
G1 F1800
G1 X95.350 Y109.650 E3.75494
G1 X95.350 Y100.350 E4.60059
G1 X114.650 Y100.350 E6.35553
G1 X114.650 Y109.575 E7.19435
G1 X114.156 Y109.575 F7800.000
G1 X114.025 Y109.025 F7800.000
G1 F1800
G1 X95.975 Y109.025 E8.83565
G1 X95.975 Y100.975 E9.56766
G1 X114.025 Y100.975 E11.20895
G1 X114.025 Y108.950 E11.93414
G1 X113.400 Y108.400 F7800.000
G1 F1800
G1 X106.839 Y108.400 E12.53073
G1 X106.753 Y108.146 E12.55516
G1 X107.541 Y107.541 E12.64549
G1 X108.112 Y106.797 E12.73079
G1 X108.471 Y105.930 E12.81610
G1 X108.594 Y105.000 E12.90140
G1 X108.471 Y104.070 E12.98670
G1 X108.112 Y103.203 E13.07200
G1 X107.541 Y102.459 E13.15730
G1 X106.753 Y101.854 E13.24764
G1 X106.839 Y101.600 E13.27207
G1 X113.400 Y101.600 E13.86866
G1 X113.400 Y108.325 E14.48020
G1 E12.48020 F2400.00000
G92 E0
G1 X103.161 Y108.400 F7800.000
G1 E2.00000 F2400.00000
G1 F1800
G1 X96.600 Y108.400 E2.59659
G1 X96.600 Y101.600 E3.21495
G1 X103.161 Y101.600 E3.81154
G1 X103.247 Y101.854 E3.83597
G1 X102.459 Y102.459 E3.92630
G1 X101.884 Y103.209 E4.01225
G1 X101.526 Y104.095 E4.09915
G1 X101.406 Y105.000 E4.18216
G1 X101.529 Y105.930 E4.26746
G1 X101.888 Y106.797 E4.35276
G1 X102.459 Y107.541 E4.43806
G1 X103.247 Y108.146 E4.52840
G1 X103.185 Y108.329 E4.54601
G1 X103.834 Y107.020 F7800.000
G1 F1800
G1 X103.350 Y106.650 E4.60139
G1 X102.980 Y106.166 E4.65676
G1 X102.746 Y105.604 E4.71214
G1 X102.667 Y105.000 E4.76752
G1 X102.744 Y104.416 E4.82112
G1 X102.979 Y103.835 E4.87809
G1 X103.350 Y103.350 E4.93361
G1 X103.835 Y102.979 E4.98913
G1 X104.416 Y102.744 E5.04610
G1 X105.000 Y102.667 E5.09969
G1 X105.604 Y102.746 E5.15507
G1 X106.166 Y102.980 E5.21045
G1 X106.650 Y103.350 E5.26583
G1 X107.020 Y103.834 E5.32121
G1 X107.254 Y104.396 E5.37659
G1 X107.333 Y105.000 E5.43197
G1 X107.254 Y105.604 E5.48735
G1 X107.020 Y106.166 E5.54273
G1 X106.650 Y106.650 E5.59810
G1 X106.166 Y107.020 E5.65348
G1 X105.604 Y107.254 E5.70886
G1 X105.000 Y107.333 E5.76424
G1 X104.396 Y107.254 E5.81962
G1 X103.903 Y107.049 E5.86818
G1 X103.834 Y107.020 F7800.000
G1 X103.453 Y107.516 F7800.000
G1 F1800
G1 X102.905 Y107.095 E5.93104
G1 X102.434 Y106.482 E6.00138
G1 X102.138 Y105.767 E6.07172
G1 X102.037 Y105.000 E6.14206
G1 X102.135 Y104.255 E6.21036
G1 X102.431 Y103.522 E6.28229
G1 X102.905 Y102.905 E6.35303
G1 X103.522 Y102.431 E6.42377
G1 X104.255 Y102.135 E6.49570
G1 X105.000 Y102.037 E6.56400
G1 X105.767 Y102.138 E6.63434
G1 X106.482 Y102.434 E6.70468
G1 X107.095 Y102.905 E6.77502
G1 X107.566 Y103.518 E6.84536
G1 X107.862 Y104.233 E6.91570
G1 X107.963 Y105.000 E6.98604
G1 X107.862 Y105.767 E7.05638
G1 X107.566 Y106.482 E7.12672
G1 X107.095 Y107.095 E7.19706
G1 X106.482 Y107.566 E7.26740
G1 X105.767 Y107.862 E7.33774
G1 X105.000 Y107.963 E7.40808
G1 X104.233 Y107.862 E7.47843
G1 X103.513 Y107.562 E7.54940
G1 X103.505 Y108.358 F7800.000
G1 F1800
G1 X104.116 Y108.439 E7.59354
G1 F1800
G1 X104.686 Y108.476 E7.62979
G1 F1800
G1 X105.028 Y108.495 E7.64780
G1 F1800
G1 X105.599 Y108.457 E7.68406
G1 F1800
G1 X105.884 Y108.439 E7.70454
G1 X106.495 Y108.358 E7.74868
G1 E5.74868 F2400.00000
G92 E0
G1 X101.608 Y108.018 F7800.000
G1 E2.00000 F2400.00000
G1 F1800
G1 X102.094 Y107.532 E2.06545
G1 X101.692 Y107.009 E2.12826
G1 X100.683 Y108.018 E2.26418
G1 X99.758 Y108.018 E2.35225
G1 X101.387 Y106.389 E2.57154
G1 X101.163 Y105.850 E2.62711
G1 X101.144 Y105.707 E2.64089
G1 X98.832 Y108.018 E2.95212
G1 X97.907 Y108.018 E3.04019
G1 X101.037 Y104.889 E3.46147
G1 X101.019 Y104.757 E3.47415
G1 X101.137 Y103.864 E3.55992
G1 X96.982 Y108.018 E4.11925
G1 X96.982 Y107.094 E4.20727
G1 X102.094 Y101.982 E4.89549
G1 X101.169 Y101.982 E4.98356
G1 X96.982 Y106.169 E5.54722
G1 X96.982 Y105.243 E5.63529
G1 X100.243 Y101.982 E6.07440
G1 X99.318 Y101.982 E6.16247
G1 X96.982 Y104.318 E6.47703
G1 X96.982 Y103.393 E6.56510
G1 X98.393 Y101.982 E6.75510
G1 X97.468 Y101.982 E6.84318
G1 X96.982 Y102.468 E6.90861
G1 E4.90861 F2400.00000
G92 E0
G1 X103.517 Y101.676 F7800.000
G1 E2.00000 F2400.00000
G1 F1800
G1 X103.793 Y101.623 E2.02366
G1 F1800
G1 X104.140 Y101.560 E2.04867
G1 F1800
G1 X104.694 Y101.524 E2.08375
G1 F1800
G1 X105.028 Y101.505 E2.10134
G1 F1800
G1 X105.599 Y101.543 E2.13759
G1 F1800
G1 X105.884 Y101.561 E2.15808
G1 X106.495 Y101.642 E2.20221
G1 X107.906 Y102.468 F7800.000
G1 F1800
G1 X108.392 Y101.982 E2.26765
G1 X109.317 Y101.982 E2.35572
G1 X108.308 Y102.991 E2.49164
G1 X108.415 Y103.131 E2.50842
G1 X108.613 Y103.611 E2.55782
G1 X110.242 Y101.982 E2.77711
G1 X111.168 Y101.982 E2.86518
G1 X108.856 Y104.293 E3.17640
G1 X108.963 Y105.111 E3.25490
G1 X112.093 Y101.982 E3.67619
G1 X113.018 Y101.982 E3.76426
G1 X108.863 Y106.136 E4.32359
G1 X108.837 Y106.336 E4.34278
G1 X108.415 Y107.355 E4.44774
G1 X107.906 Y108.018 E4.52735
G1 X113.018 Y102.906 E5.21559
G1 X113.018 Y103.831 E5.30367
G1 X108.831 Y108.018 E5.86733
G1 X109.757 Y108.018 E5.95540
G1 X113.018 Y104.757 E6.39450
G1 X113.018 Y105.682 E6.48258
G1 X110.682 Y108.018 E6.79713
G1 X111.607 Y108.018 E6.88520
G1 X113.018 Y106.607 E7.07521
G1 X113.018 Y107.532 E7.16328
G1 X112.532 Y108.018 E7.22873
G1 Z0.350 F7800.000
G1 Z0.500 F7800.000
G1 X103.518 Y107.431 F7800.000
G1 F900
G1 X102.981 Y107.019 E7.25694
G1 X102.527 Y106.428 E7.28798
G1 X102.242 Y105.739 E7.31902
G1 X102.145 Y105.000 E7.35006
G1 X102.235 Y104.313 E7.37890
G1 X102.522 Y103.579 E7.41172
G1 X102.981 Y102.981 E7.44313
G1 X103.579 Y102.522 E7.47455
G1 X104.313 Y102.235 E7.50737
G1 X105.000 Y102.145 E7.53621
G1 X105.739 Y102.242 E7.56725
G1 X106.428 Y102.527 E7.59829
G1 X107.019 Y102.981 E7.62933
G1 X107.473 Y103.572 E7.66038
G1 X107.758 Y104.261 E7.69142
G1 X107.855 Y105.000 E7.72246
G1 X107.758 Y105.739 E7.75350
G1 X107.473 Y106.428 E7.78454
G1 X107.019 Y107.019 E7.81559
G1 X106.428 Y107.473 E7.84663
G1 X105.739 Y107.758 E7.87767
G1 X105.000 Y107.855 E7.90871
G1 X104.261 Y107.758 E7.93976
G1 X103.579 Y107.475 E7.97051
G1 X103.871 Y106.955 F7800.000
G1 F900
G1 X103.404 Y106.596 E7.98954
G1 X103.045 Y106.129 E8.00857
G1 X102.820 Y105.584 E8.02760
G1 X102.743 Y105.000 E8.04663
G1 X102.813 Y104.462 E8.06415
G1 X103.043 Y103.874 E8.08455
G1 X103.404 Y103.404 E8.10367
G1 X103.874 Y103.043 E8.12280
G1 X104.462 Y102.813 E8.14320
G1 X105.000 Y102.743 E8.16072
G1 X105.584 Y102.820 E8.17975
G1 X106.129 Y103.045 E8.19878
G1 X106.596 Y103.404 E8.21781
G1 X106.955 Y103.871 E8.23684
G1 X107.180 Y104.416 E8.25586
G1 X107.257 Y105.000 E8.27489
G1 X107.180 Y105.584 E8.29392
G1 X106.955 Y106.129 E8.31295
G1 X106.596 Y106.596 E8.33198
G1 X106.129 Y106.955 E8.35101
G1 X105.584 Y107.180 E8.37004
G1 X105.000 Y107.257 E8.38907
G1 X104.416 Y107.180 E8.40810
G1 X103.941 Y106.984 E8.42471
G1 X103.871 Y106.955 F7800.000
G1 X103.379 Y108.464 F7800.000
G1 F900
G1 X96.536 Y108.464 E8.70969
G1 X96.536 Y101.536 E8.99825
G1 X103.371 Y101.536 E9.28293
G1 X103.433 Y101.862 E9.29677
G1 X103.248 Y101.934 E9.30502
G1 X102.505 Y102.505 E9.34405
G1 X101.934 Y103.248 E9.38308
G1 X101.584 Y104.146 E9.42322
G1 X101.471 Y105.000 E9.45909
G1 X101.591 Y105.913 E9.49746
G1 X101.944 Y106.764 E9.53582
G1 X102.505 Y107.495 E9.57419
G1 X103.236 Y108.056 E9.61255
G1 X103.443 Y108.142 E9.62189
G1 X103.393 Y108.391 E9.63246
G1 X106.621 Y108.464 F7800.000
G1 F900
G1 X106.557 Y108.142 E9.64616
G1 X106.764 Y108.056 E9.65550
G1 X107.495 Y107.495 E9.69386
G1 X108.056 Y106.764 E9.73223
G1 X108.409 Y105.913 E9.77059
G1 X108.529 Y105.000 E9.80896
G1 X108.409 Y104.087 E9.84732
G1 X108.056 Y103.236 E9.88569
G1 X107.495 Y102.505 E9.92405
G1 X106.764 Y101.944 E9.96242
G1 X106.557 Y101.858 E9.97175
G1 X106.621 Y101.536 E9.98545
G1 X113.464 Y101.536 E10.27043
G1 X113.464 Y108.464 E10.55899
G1 X106.696 Y108.464 E10.84085
G1 X114.132 Y109.132 F7800.000
G1 F3600
G1 X95.868 Y109.132 E11.60150
G1 X95.868 Y100.868 E11.94568
G1 X114.132 Y100.868 E12.70633
G1 X114.132 Y109.057 E13.04739
G1 X114.725 Y109.725 F7800.000
G1 F1800
G1 X95.275 Y109.725 E13.67547
G1 X95.275 Y100.275 E13.98063
G1 X114.725 Y100.275 E14.60871
G1 X114.725 Y109.650 E14.91145
G1 X114.231 Y109.650 F7800.000
G1 X107.950 Y107.401 F7800.000
G1 F1200
G1 X108.605 Y108.056 E14.95248
G1 X109.610 Y108.056 E14.99696
G1 X108.384 Y106.831 E15.07373
G1 X108.678 Y106.121 E15.10778
G1 X110.614 Y108.056 E15.22903
G1 X111.618 Y108.056 E15.27351
G1 X108.868 Y105.306 E15.44578
G1 X108.943 Y104.740 E15.47106
G1 X108.887 Y104.321 E15.48979
G1 X112.623 Y108.056 E15.72377
G1 X113.056 Y108.056 E15.74297
G1 X113.056 Y107.485 E15.76826
G1 X108.500 Y102.929 E16.05368
G1 X108.380 Y102.639 E16.06757
G1 X107.950 Y102.079 E16.09883
G1 X108.086 Y101.944 E16.10731
G1 X108.519 Y101.944 E16.12651
G1 X113.056 Y106.481 E16.41072
G1 X113.056 Y105.477 E16.45521
G1 X109.523 Y101.944 E16.67650
G1 X110.528 Y101.944 E16.72099
G1 X113.056 Y104.472 E16.87936
G1 X113.056 Y103.468 E16.92385
G1 X111.532 Y101.944 E17.01931
G1 X112.537 Y101.944 E17.06380
G1 X113.056 Y102.463 E17.09635
G1 X107.536 Y102.069 F7800.000
G1 F1200
G1 X107.398 Y101.931 E17.09746
G1 X107.300 Y101.898 E17.09805
G1 X106.183 Y102.030 F7800.000
G1 F1200
G1 X105.998 Y101.719 E17.11211
G1 F1200
G1 X105.906 Y101.564 E17.11990
G1 X105.317 Y101.524 E17.14536
G1 F1200
G1 X104.960 Y101.506 E17.15904
G1 X104.442 Y101.540 E17.17888
G1 F1200
G1 X104.096 Y101.568 E17.19357
G1 X103.730 Y101.637 E17.20933
G1 X102.700 Y101.898 F7800.000
G1 F1200
G1 X102.602 Y101.931 E17.20993
G1 X102.464 Y102.069 E17.21104
G1 X102.050 Y102.599 F7800.000
G1 F1200
G1 X101.395 Y101.944 E17.25207
G1 X100.390 Y101.944 E17.29655
G1 X101.614 Y103.167 E17.37318
G1 X101.329 Y103.887 E17.40746
G1 X99.386 Y101.944 E17.52917
G1 X98.382 Y101.944 E17.57366
G1 X101.132 Y104.694 E17.74593
G1 X101.057 Y105.260 E17.77121
G1 X101.113 Y105.679 E17.78994
G1 X97.377 Y101.944 E18.02392
G1 X96.944 Y101.944 E18.04312
G1 X96.944 Y102.515 E18.06840
G1 X101.500 Y107.071 E18.35383
G1 X101.620 Y107.361 E18.36771
G1 X102.050 Y107.921 E18.39897
G1 X101.914 Y108.056 E18.40746
G1 X101.481 Y108.056 E18.42666
G1 X96.944 Y103.519 E18.71087
G1 X96.944 Y104.523 E18.75535
G1 X100.477 Y108.056 E18.97664
G1 X99.472 Y108.056 E19.02113
G1 X96.944 Y105.528 E19.17951
G1 X96.944 Y106.532 E19.22400
G1 X98.468 Y108.056 E19.31946
G1 X97.463 Y108.056 E19.36395
G1 X96.944 Y107.537 E19.39649
G1 X102.464 Y107.931 F7800.000
G1 F1200
G1 X102.602 Y108.069 E19.39760
G1 X102.700 Y108.102 E19.39819
G1 X103.817 Y107.970 F7800.000
G1 F1200
G1 X103.909 Y108.125 E19.40522
G1 F1200
G1 X104.094 Y108.436 E19.42068
G1 X104.405 Y108.457 E19.43402
G1 F1200
G1 X104.960 Y108.494 E19.45530
G1 X105.317 Y108.476 E19.46898
G1 F1200
G1 X105.906 Y108.436 E19.49444
G1 X105.998 Y108.281 E19.50223
G1 F1200
G1 X106.183 Y107.970 E19.51629
G1 X107.300 Y108.102 F7800.000
G1 F1200
G1 X107.398 Y108.069 E19.51688
G1 X107.536 Y107.931 E19.51799
